X: 2024
T: Ashmolean House
R: reel
M: 4/4
K: Dmajor
|:AF F2 ED BA|D2 EDFAAA|d2 fd ef dB|AF DE FE E2|
AF F2 ED BA|D2 EDFAAB|A Bd ed BAG|A2 EG FD D2:|
|:de fg aa2b|af df eB BB|de fg a2 ab|af df e4|
fd dd Ad dd|ed (3Bcd egfe|dB AG AA AG|AG EG F2 D2:|

